X: 42298
T: Wedding Day
R: jig
M: 6/8
K: Gdorian
|:DGG GDG|F2 F EDC|DGG, B,CD|FDC D2 F|
FDF G2G-|F2 F EDC|DFD DCA,|DCA, G,2 F:|
DBD cDd-|dcB GFG|GBd gab|agf g2 F|
DBD cDd-|dbf gfd|dcB def|cBA G3|
DBD cDd-|dcB GFG|GBd gab|agf g2 a|
bag agf|gfd fdc|dcB cBA|BAG ^F3||

